packages/kaspersky-hexa-ui-icons/src/iconsSVGs/24/StatusDangerSolid.svg

<svg xmlns="http://www.w3.org/2000/svg" width="24" height="24" fill="none" viewBox="0 0 24 24"><path fill="#000" fill-rule="evenodd" d="M12 22c5.5228 0 10-4.4772 10-10S17.5228 2 12 2 2 6.4772 2 12s4.4772 10 10 10m0-15c.5523 0 1 .4477 1 1v5c0 .5523-.4477 1-1 1s-1-.4477-1-1V8c0-.5523.4477-1 1-1m1 9c0 .5523-.4477 1-1 1s-1-.4477-1-1 .4477-1 1-1 1 .4477 1 1"/></svg>

<svg width="24" height="24" viewBox="0 0 24 24" fill="none" xmlns="http://www.w3.org/2000/svg">
<path fill-rule="evenodd" clip-rule="evenodd" d="M12 22C17.5228 22 22 17.5228 22 12C22 6.47715 17.5228 2 12 2C6.47715 2 2 6.47715 2 12C2 17.5228 6.47715 22 12 22ZM12 7C12.5523 7 13 7.44772 13 8V13C13 13.5523 12.5523 14 12 14C11.4477 14 11 13.5523 11 13V8C11 7.44772 11.4477 7 12 7ZM13 16C13 16.5523 12.5523 17 12 17C11.4477 17 11 16.5523 11 16C11 15.4477 11.4477 15 12 15C12.5523 15 13 15.4477 13 16Z" fill="black"/>
</svg>
